X: 29188
T: New Century, The
R: hornpipe
M: 4/4
K: Gmajor
|:Bc|dBGF GB (3dcB|cA=FE FAcA|BAG^F GB (3def|gb (3agf gage|
dgdB (3GGG AB|c=fcA (3=FFF Ac|(3BAG gd ecDF|1 AGGF G2:|2 AGGF G2||
|:GA|Bcde =fdcA|dDE^F G3A|Bcde fd (3efg|afd^c d2 (3def|
gdBg ecAF|GFGB AGEG|(3FED AB cADF|AGGF G2:|

